X: 38784
T: Stumpie
R: strathspey
M: 4/4
K: Gmajor
|:dc|B2d2 d2cB|c2e2 e2dc|B2d2 d2cB|c2A2 A2dc|
B2d2 d2cB|c2e2 e2dc|B2g2 A2dc|B2G2 G2:|
|:dc|B2d2 g3a|gfed g2dc|B2d2 g2fg|a2A2 A2dc|
B2d2 g3a|gfed g2dc|B2d2 A2dc|B2G2 G2:|
|:c2|B2d2 d2ef|gfed g4|B2d2 edcB|c2A2 A2c2|
B2d2 d2ef|gfed g4|BcdB ABcA|B2G2 G2:|
|:c2|B2d2 edcB|c2e2 fedc|B2d2 edcB|c2A2 A2c2|
B2d2 edcB|c2e2 fedc|BcdB ABcA|B2G2 G2:|
|:Bdg2 afgd|Bdg2 aAAc|Bdg2 aggd|BdAc BGGc:|
|:BddB ceec|BddB cAAc|BddB ceec|BdAc BGGc:|

